!!!OTL: Shang ci shan
!!!ARE: Asia, China,ÿHeilongjiang, Suihua
!! III, 59
!!!SCT: C1545
!!!YEM: Copyright 1995, estate of Helmut Schaffrath.
**kern
*ICvox
*Ivox
*M2/4
*k[b-]
*F:
{8g
8e
8d
8d}
=1
{8g
8e
8d
8d}
=2
{8g
8e
8d
8d}
=3
{8g
8e
8d
8d}
=4
{8r
16dd
16cc
8dd
8ff
=5
8.a
16cc
8a
8cc
=6
8dd
4dd
8ee
=7
16dd
16ee
16dd
16cc
4a}
=8
{8ff
8a
8cc
8a
=9
8.g
16a
8cc
8a
=10
8.g
16a
8.cc
16a
=11
8.g
16a
4cc}
=12
{8r
16ff
16gg
8dd
8cc
=13
16dd
16ff
16dd
16cc
4a}
=14
{8r
16a
16a
8a
8ee
=15
4dd
8cc
8a
=16
8g
16a
16cc
16a
16g
8f
=17
8g
4d
8c
=18
2d}
=19
{8.a
16g
8f
16cc
16a
=20
4g
8g
8f#}
=21
{8r
16a
16a
8a
8ee
=22
4dd
8cc
8a
=23
8.g
16a
8g
8f
=24
8g
4d
8c
=25
2d}
==
!!!AGN: Xiaodiao. Gan miaohui
!!!AMT: simple duple
!!!AIN: vox
!!!EED: Helmut Schaffrath
!!!EEV: 1.0
*-
